X:1
T:Beautiful Easter
T:Beautiful Easter
T:Samuel William Beazley
T:James Rowe, 1915
T:Public Domain Courtesy of the Cyber Hymnal™
T:Public Domain Courtesy of the Cyber Hymnal™
C:Samuel William Beazley
Z:Public Domain
Z:Courtesy of the Cyber Hymnal™
%%score ( 1 2 ) ( 3 4 )
L:1/8
Q:1/4=93
M:6/8
K:G
V:1 treble 
V:2 treble 
V:3 bass 
V:4 bass 
V:1
 [B,D] | [DB][DB][DB] [DB][D^A][DB] | [Ec]3 [Ec]2 [E^c] | [Dd]2 [DA] [D^G]2 [DA] | %4
w: 1.~Oh,|beau- ti- ful, beau- ti- ful|East- er, What|joy to us you|
w: 2.~No|sad- ness now lin- gers a-|round us, For|all the world looks|
w: 3.~The|song- birds are joy- ous- ly|sing- ing, And|bells make mer- ry|
w: 4.~Oh,|glor- i- ous Sav- ior, Thy|prais- es To-|day our souls em-|
 [DB]3- [DB]2 [B,D] | ([CE][DF])[EG] [DF]2 [CE] | ([B,D][DG])[DA] [DB]2 [GB] | %7
w: bring! * What|plea- * sures sweet, when|here * we meet, To|
w: bright; * And|glad * eyes glow, wher-|e’er * we go, With|
w: rhyme; * Yes,|all * things say or|sing * to- day, “’Tis|
w: ploy, * For|Thou * dost live a-|gain * to give This|
 [GA]2 [GB] [GA]2 [G^c] | d3- !fermata![Ad]2 z |:"^Refrain" z [GB][GB] (z [GB][GB]) | %10
w: praise our ris- en|king! *||
w: bless- èd East- er|light. *||
w: glad- some East- er-|time.” East-||
w: time of light and|joy. *||
 z [^CG][CG] (z [CG][CG]) | [EFc][DFB][CFA] [CE][CF]>[CD] | (z [^A,^C][A,C]) (z [G,B,][G,B,]) |1 %13
w: |||
w: |||
w: |* er! East- er! Beau- ti-||
w: |||
 z z G (z z) G x2 | z [G,B,][G,B,G] (z [DG])[B,EGB] | z [EG]([A,A] z) [EG][=C=c] | z d3 (GF) x2 :|2 %17
w: ||||
w: ||||
w: ful, beau-|* ti- * ful|* East- er! Day|* so *|
w: ||||
 z [CG] (z [^A,^C])[A,CE] x || [B,D][DG][DGB] !fermata![E^Gd]2 [EGe] | %19
w: ||
w: ||
w: dear, * so|* * full of cheer,|
w: ||
 (z [^CG][CG]) (z [=CF][CF]) | z/ [A,GBg]3 x5/2 |] %21
w: ||
w: ||
w: ||
w: ||
V:2
 x | x6 | x6 | x6 | x6 | x6 | x6 | x6 | F2 G x3 |: [Dd]3 [Ee]3 | [B,B]3 [^CA]3 | x6 | E3 D3 |1 %13
 E2 [G,C]2 _E2 [G,C]2 | D2 [B,B]2 x2 | [^C^c]2 [B,B]2 x2 | ([Dd-]3 FG[D-A] D2) :|2 E2 ^C F2 x || %18
 x6 | [B,B]3 [A,A]3 | [G,B]3 B,/D/G/B/d/ x/ |] %21
V:3
 G, | G,=G,[=F,=G,] [E,^G,][E,G,][D,F,] | [A,,A,]3 [A,,A,]2 [G,A,] | %3
 [F,A,]2 [D,F,] [D,^E,]2 [D,F,] | G,3- G,2 G, | [C,G,]2 [C,C] [C,G,]2 [C,G,] | %6
 G,2 [D,F,] G,2 [G,D] | [A,^C]2 [A,C] [A,C]2 A, | (A,2 B, !fermata![D,C]2) z |: [G,,G,]3 [E,,E,]3 | %10
 A,,3 [E,,E,]3 | (z D,D,) (z D,D,) | [G,,E,]3 [G,,D,]3 |1 [G,,E,]3 [G,,_E,]3 x2 | %14
 [G,,D,]3 [G,,G,]3 | [E,,E,]3 A,,3 | ([E,,D,]A,B,CB,A,) x2 :|2 z ([E,G,][E,G,]) (z [E,G,])[E,G,] || %18
 D,B,G, !fermata!E,2 z | A,,3 [D,,D,]3 | (G,,B,,D, [G,,G,]3) |] %21
V:4
 G, | ^G,^G, x4 | x6 | x6 | G,3- G,2 G, | x6 | (G,,B,,) G,2 x2 | x5 A, | D,3- x3 |: x6 | x6 | %11
 D,,3 D,,3 | x6 |1 x8 | x6 | x6 | x8 :|2 C,3 ^C,3 || x6 | x6 | x6 |] %21

